**kern	**kern
*staff2	*staff1
*clefF4	*clefG2
*M3/4	*M3/4
*k[b-]	*k[b-]
*F:	*F
=-	=-
*^	*
8c]	4.F]	(8ee-
4e-	.	8ddL
.	.	8ccJ)
=79	=79	=79
2d	2.F	(8ccL
.	.	8bJ
.	.	8b-L)
.	.	8b-'J
4e	.	8b-'L
.	.	8b-'J
*v	*v	*
=80	=80
8F 8f	8a
4f	4aa
(8e	(8gg
8dL	8ffL
8cJ)	8eeJ)
=81	=81
(8cL	(8eeL
8AJ)	8cc#J)
16B-LL	16ddLL
16c	16ee
16d	16ff
16cJJ	16eeJJ
16eLL	16ggLL
16d	16ff
16c	16ee
16B-JJ	16ddJJ
=82	=82
*^	*
8.dL	2F	8.ffL
16B-Jk	.	16ddJk
4A	.	4cc
4r	4r	4r
*v	*v	*
=83	=83
4CC 4C	16r
.	(32gLLL
.	32ccJJ
.	32eeLL
.	32gg
.	32ee
.	32ccJJJ)
4EE 4E	8g
.	(4g
4GG 4G	.
.	8f) 8b
=84	=84
4CC 4C	16r
.	(32gLLL
.	32ccJJ
.	32eeLL
.	32gg
.	32ee
.	32ccJJJ)
4EE 4E	8g
.	(4g
4GG 4G	.
.	8f) 8b
=85	=85
4CC 4C	16r
.	(32gLLL
.	32ccJJ
.	32eeLL
.	32gg
.	32ee
.	32ccJJJ)
4EE 4E	8g
.	(4g
4GG 4G	.
.	8f) 8b
=86	=86
4.C; 4.c;	4.e; 4.cc;
(8A	8cc#
8B-L	(16eeLL
.	16dd)
8AJ)	(16dd
.	16ccJJ)
=87	=87
*^	*
(8GL	2.C	(16ccLL
.	.	16b-)
8FJ	.	(16b-
.	.	16aJJ)
8EL	.	(16aLL
.	.	16g)
8GJ	.	(16g
.	.	16aJJ)
8FL	.	(16aLL
.	.	16b-)
8EJ)	.	(16b-
.	.	16gJJ)
*v	*v	*
=88	=88
4F	8B-L 8e
.	8AJ 8f
4FF	4A 4f
4r	4r
*-	*-
